X:1
T:The Magic Touch
T:The Magic Touch
C:Buck Ram
Z:All Rights Reserved
L:1/8
M:4/4
K:Ab
V:1 treble nm="Melody" snm="Choir"
%%MIDI program 53
V:1
"Ab " A2 c2"F7" e2 c2 |"Bbmin" d2 B2"Db " d2 B2 |"Eb7" z2 (3efe e2 d2 |"Db " d3 c"Ab " E4 | %4
w: ||You've- * * got the|ma- gic touch,|
 z2 E2 A3 f |"Eb7" e3 d E4 | z2 gg- g2 z g |"Bb " f4- fe e>=d |"Eb7" d4 z G cB |"Ab " c8 | %10
w: it makes me|glow so much,|it casts * a|spell * it rings a|bell, the ma- gic|touch.|
"Eb7" z2 (3efe e2 d2 |"Db " d3 c"Ab " E4 | z2 E2 A2 z f |"Eb7" e3 d E4 | z2 g2 g3 f | %15
w: When- * * * I|feel your charm,|it's like a|four a\- larm;|you make me|
"Bb " f3 e e3 =d |"Eb7" d4 z G cB |"Ab " BA- A4 z2 |"Ab7" z2 A2 d2 f2 |"Bbmin7" ga- a4 z b | %20
w: thrill so much, you've|got the ma- gic|to- uch. *|Here I go|reel- ling * oh,|
 a6 f2 |"Ebmaj7" =de- e4 z d |"Eb " e4 z2 e2 |"Fmaj7" =e2 f4 z e |"F " f4 z2 z c |"Bb7" cB- B6 | %26
w: oh, I'm|feel- ing * the|glow but|where can I|go from|yo- u? *|
"Eb7" z2 e2 e d3 |"Db " d3 c"Ab " E4 | z2 E2 A2 z f |"Eb7" e3 d E4 | z2 g2 g2 z f | %31
w: I did- n't|know too much|and then I|felt your touch,|and now I|
"Bb " f4- fe e>=d |"Eb7" d4 z G cB |"Ab " BA- A4 z2 |"Ab7" z2 A2 d2 f2 |"Bbmin7" ga- a4 z b | %36
w: learn * I can re-|turn the ma- gic|to- uch. *|Here I go|reel- ing * oh,|
 a6 f2 |"Ebmaj7" =de- e4 z d |"Eb " e4 z2 z e |"Fmaj7" =e2 f4 z g |"F " gf- f2 z2 z c | %41
w: oh, I'm|feel- ing * the|glow but|where can I|g\- o * from|
"Bb7" cB- B6 |"Eb7" z2 (3efe e d3 |"Db " d3 c"Ab " E4 | z2 E2 A2 z f |"Eb7" e3 d E4 | %46
w: yo- u? *|I\- * * di- dn't|know too much|and then I|felt your touch,|
 z2 g2 g2 z f |"Bb " f4- fe e>=d |"Eb7" d4 z G cB |"Ab " BA- A4 z2 | A2 c2"F7" e2 c2 | %51
w: and now I|learn * I can re-|turn the ma- gic|to- uch. *||
"Bbmin" d2 B2"Eb7" d2 B2 |"Ab " c8 |] %53
w: ||

